.local/share/icons/Gruvbox-Plus-Dark/panel/24/teams-for-linux-tray.svg

<svg xmlns="http://www.w3.org/2000/svg" width="24" height="24" version="1.1">
 <defs>
  <style id="current-color-scheme" type="text/css">
   .ColorScheme-Text { color:#ebdbb2; } .ColorScheme-Highlight { color:#458588; }
  </style>
 </defs>
 <path style="fill:currentColor" class="ColorScheme-Text" d="M 6.0234375,4 C 5.4566955,4 5,4.4566955 5,5.0234375 V 17.976562 C 5,18.543305 5.4566955,19 6.0234375,19 H 18.976562 C 19.543305,19 20,18.543305 20,17.976562 V 5.0234375 C 20,4.4566955 19.543305,4 18.976562,4 Z M 8,7 h 9 v 3 h -3 v 6 H 11 V 10 H 8 Z"/>
</svg>

<svg width="24" height="24" version="1.1" xmlns="http://www.w3.org/2000/svg">
  <defs>
    <style id="current-color-scheme" type="text/css">.ColorScheme-Text { color:#ebdbb2; } .ColorScheme-Highlight { color:#458588; } .ColorScheme-NeutralText { color:#fe8019; } .ColorScheme-PositiveText { color:#689d6a; } .ColorScheme-NegativeText { color:#fb4934; }</style>
  </defs>
  <path class="ColorScheme-Text" d="m6.023 4c-0.5667 0-1.023 0.4567-1.023 1.023v12.95c0 0.5667 0.4567 1.023 1.023 1.023h12.95c0.5667 0 1.023-0.4567 1.023-1.023v-12.95c0-0.5667-0.4567-1.023-1.023-1.023zm1.977 3h9v3h-3v6h-3v-6h-3z" fill="currentColor"/>
</svg>
